lib/preview/nrk-logo-preview-nrk-super-title-below-on-dark.svg

<svg width="45" height="31" viewBox="0 0 45 31" fill="none" xmlns="http://www.w3.org/2000/svg">
<g clip-path="url(#clip0_4164_1477)">
<g clip-path="url(#clip1_4164_1477)">
<path d="M22.1879 26.4433C22.2574 26.6265 22.2906 26.8213 22.2857 27.0171C22.2935 27.2813 22.2299 27.5429 22.1013 27.7742C21.9775 27.9838 21.8043 28.1601 21.5966 28.2879C21.3642 28.4286 21.1086 28.5274 20.8418 28.5798C20.5346 28.6429 20.2217 28.6738 19.908 28.6718C19.7634 28.6718 19.6205 28.6682 19.4794 28.661C19.3353 28.6534 19.1919 28.6353 19.0504 28.6068C18.9052 28.5777 18.7532 28.5415 18.5943 28.4983C18.4355 28.4551 18.2582 28.4009 18.0626 28.3356L18.0189 27.3513C18.1856 27.4092 18.354 27.4634 18.524 27.514C18.6941 27.5647 18.8588 27.6061 19.018 27.6384C19.1771 27.6708 19.3308 27.6963 19.4795 27.7139C19.6144 27.7312 19.7504 27.7403 19.8864 27.741C20.0852 27.7421 20.2835 27.7223 20.4781 27.6817C20.6416 27.6519 20.7948 27.5811 20.9233 27.4761C20.9799 27.4252 21.0243 27.3624 21.0534 27.2922C21.0825 27.2221 21.0955 27.1464 21.0914 27.0706C21.0919 26.9933 21.0732 26.9171 21.037 26.8487C20.9989 26.7781 20.9472 26.7157 20.8848 26.6651C20.8147 26.6076 20.7382 26.5585 20.6567 26.5187C20.5701 26.4756 20.4797 26.4359 20.3854 26.3998C20.3128 26.3782 20.2389 26.3546 20.1628 26.3296C20.0867 26.3047 20.0073 26.2793 19.9239 26.2538C19.8405 26.2283 19.7576 26.2052 19.6743 26.1833C19.5909 26.1613 19.508 26.1365 19.4246 26.1078C19.3412 26.0791 19.26 26.0463 19.1804 26.0104C19.0365 25.9532 18.8984 25.8826 18.768 25.7994C18.6413 25.72 18.5277 25.6216 18.4313 25.5075C18.3331 25.3887 18.2577 25.253 18.2087 25.1071C18.1515 24.9345 18.1239 24.7535 18.1271 24.5718C18.1212 24.3171 18.1772 24.0647 18.2903 23.8362C18.3994 23.6265 18.56 23.4478 18.7572 23.3168C18.9792 23.1715 19.2256 23.0672 19.4846 23.0087C19.7868 22.9378 20.0966 22.9033 20.4071 22.9059C20.5445 22.9059 20.6839 22.9113 20.8252 22.9221C20.9654 22.9327 21.105 22.9508 21.2433 22.9763C21.3828 23.002 21.5205 23.0362 21.6557 23.0788C21.7967 23.1236 21.9345 23.178 22.0681 23.2415L21.9816 24.1934C21.8782 24.142 21.7711 24.0986 21.6612 24.0636C21.549 24.0274 21.435 23.9949 21.3192 23.9661C21.2033 23.9374 21.0894 23.9136 20.9771 23.8956C20.8649 23.8776 20.76 23.8651 20.6622 23.8578C20.5644 23.8506 20.476 23.8471 20.3963 23.8471C20.2396 23.8455 20.0832 23.8599 19.9294 23.8902C19.8063 23.9141 19.6874 23.956 19.5765 24.0146C19.4876 24.0608 19.4127 24.1299 19.3597 24.2148C19.3118 24.2968 19.2874 24.3903 19.2891 24.4852C19.2869 24.5784 19.3114 24.6703 19.3597 24.7501C19.4065 24.8258 19.4672 24.8919 19.5387 24.945C19.6165 25.0023 19.7002 25.0513 19.7884 25.091C19.88 25.1363 19.9744 25.176 20.0709 25.2099C20.1719 25.2461 20.2786 25.2786 20.3909 25.3074C20.5033 25.3362 20.6155 25.3704 20.7276 25.4101C20.8398 25.4497 20.9502 25.4876 21.0588 25.5238C21.2213 25.5799 21.3792 25.6485 21.5311 25.7291C21.6766 25.8066 21.8085 25.9071 21.9218 26.0267C22.0355 26.1481 22.1257 26.2893 22.1879 26.4433ZM26.8911 23.0898L28.1285 22.9061L28.1177 28.5634H27.1516L26.9792 27.8606C26.952 27.8861 26.9248 27.9117 26.8969 27.9361C26.7263 28.09 26.5387 28.2242 26.3378 28.3362C26.1442 28.4437 25.9382 28.5273 25.7244 28.5853C25.4994 28.6442 25.2676 28.6732 25.035 28.6715C24.6752 28.682 24.3186 28.602 23.9981 28.4389C23.7104 28.2824 23.4832 28.0351 23.3522 27.7358C23.2071 27.4224 23.1347 27.0204 23.1351 26.5297V23.09L24.3725 22.9063V26.3028C24.3655 26.5445 24.406 26.7852 24.4919 27.0114C24.5619 27.1919 24.6922 27.3429 24.861 27.4388C25.0623 27.5406 25.2866 27.589 25.5121 27.5794C25.6488 27.5795 25.7852 27.5668 25.9195 27.5416C26.052 27.5167 26.1826 27.4823 26.3102 27.4388C26.4406 27.394 26.5676 27.3398 26.6901 27.2767C26.7558 27.2429 26.8226 27.2062 26.8911 27.167V23.0898ZM33.6786 23.2365C33.2903 23.0001 32.8413 22.8817 32.3866 22.8957C32.1116 22.8968 31.8379 22.9333 31.5723 23.0042C31.2881 23.08 31.0146 23.1909 30.758 23.3342C30.7107 23.3604 30.6638 23.3899 30.6169 23.4191V22.9068L29.3794 23.1017V30.8254H30.6169V28.3946C30.8143 28.4776 31.0199 28.5399 31.2303 28.5805C31.4898 28.6295 31.7534 28.6529 32.0175 28.6506C32.508 28.6584 32.9915 28.5353 33.4181 28.294C33.8379 28.0478 34.1787 27.6875 34.4005 27.2554C34.643 26.801 34.7642 26.2494 34.7642 25.6003C34.774 25.1155 34.6796 24.6341 34.4875 24.1886C34.3177 23.7989 34.0363 23.4676 33.6786 23.2365ZM33.2875 26.8278C33.1616 27.1073 32.9484 27.3388 32.6797 27.4876C32.3783 27.6433 32.0419 27.7195 31.7026 27.7091C31.5465 27.7095 31.3904 27.6987 31.2358 27.6767C31.0736 27.6528 30.9137 27.6147 30.7581 27.5631C30.7127 27.5484 30.6654 27.5326 30.617 27.5157V24.1613L30.6278 24.1562C30.7797 24.0876 30.9227 24.0298 31.0568 23.9829C31.1823 23.9385 31.3111 23.9041 31.4421 23.8802C31.5603 23.859 31.6802 23.8482 31.8003 23.8478C32.1258 23.8363 32.4489 23.907 32.7395 24.0534C32.9924 24.1941 33.191 24.4149 33.3037 24.6808C33.4416 25.0206 33.5065 25.3854 33.4942 25.7517C33.5052 26.1212 33.4346 26.4884 33.2875 26.8278ZM39.4829 26.0279C39.6974 25.9648 39.8981 25.8621 40.0746 25.7252C40.2255 25.6047 40.3463 25.451 40.4274 25.2762C40.5077 25.0995 40.5484 24.9075 40.5468 24.7136C40.5458 24.4857 40.4957 24.2607 40.4 24.0537C40.2985 23.8322 40.1505 23.6349 39.966 23.4752C39.7547 23.2949 39.5092 23.1587 39.244 23.0748C38.9175 22.9721 38.5765 22.9228 38.2342 22.9288C37.6407 22.9288 37.1377 23.0532 36.7253 23.3019C36.3142 23.5489 35.9885 23.915 35.7916 24.3513C35.5724 24.8467 35.4649 25.3839 35.4766 25.9251C35.4766 26.5241 35.587 27.0289 35.8078 27.4396C36.0292 27.8514 36.3774 28.1814 36.8013 28.381C37.2428 28.5974 37.7856 28.7056 38.4298 28.7056C38.6696 28.7071 38.9092 28.6908 39.1465 28.6567C39.3571 28.626 39.5644 28.5754 39.7653 28.5054C39.9608 28.4371 40.1599 28.356 40.3624 28.262L40.4385 27.3643C40.1569 27.4743 39.8685 27.5664 39.5752 27.64C39.2465 27.7191 38.9092 27.7573 38.5711 27.7537C38.3001 27.7576 38.0297 27.7249 37.7676 27.6562C37.5455 27.6037 37.3423 27.491 37.1804 27.3306C37.0186 27.1703 36.9044 26.9684 36.8504 26.7474C36.8058 26.5926 36.7756 26.4339 36.7603 26.2736L38.6472 26.1741C38.9306 26.1586 39.2111 26.1094 39.4829 26.0279ZM36.6493 25.47C36.6634 25.2063 36.7159 24.946 36.8052 24.6974C36.8949 24.4349 37.0659 24.2076 37.2937 24.0482C37.5292 23.9016 37.8033 23.8282 38.0809 23.8375C38.3059 23.8282 38.5297 23.8748 38.7322 23.9731C38.8847 24.0503 39.0126 24.1683 39.1016 24.3139C39.1773 24.4378 39.2185 24.5797 39.221 24.7248C39.2237 24.8367 39.1954 24.9471 39.1393 25.0441C39.0741 25.1429 38.9791 25.2187 38.868 25.2605C38.7064 25.3219 38.5357 25.3566 38.3629 25.3632L36.6493 25.47ZM44.5714 22.9327L44.4196 24.0471C44.2802 24.0397 44.1406 24.0415 44.0015 24.0525C43.8752 24.0621 43.75 24.0819 43.627 24.1118C43.5109 24.1411 43.3967 24.1773 43.285 24.2203C43.1703 24.265 43.0596 24.3193 42.9541 24.3825C42.8744 24.4303 42.7946 24.4819 42.7153 24.5334V28.5583H41.4773V23.0843L42.7152 22.9006V23.7698C42.735 23.7467 42.7545 23.7234 42.7747 23.7011C42.925 23.5326 43.0944 23.3819 43.2794 23.2521C43.4591 23.1266 43.6593 23.0332 43.8711 22.9761C44.0997 22.9175 44.3374 22.9027 44.5714 22.9327Z" fill="#00B3C7"/>
<path d="M0 28.5918V23.0014H1.84966V28.5918H0ZM4.36616 23.8912L5.42988 28.5918H3.4056L2.13543 23.0014H3.27077C3.53112 22.9981 3.78373 23.0891 3.98125 23.2573C4.17909 23.4185 4.31501 23.6423 4.36616 23.8912ZM5.70774 28.5918V23.0014H7.5574V28.5918H5.70774ZM8.95445 25.1274C8.75514 25.1293 8.55902 25.0776 8.38697 24.9777C8.21723 24.8804 8.07623 24.7406 7.97813 24.5722C7.87736 24.4016 7.8252 24.207 7.82719 24.0093C7.8249 23.8127 7.87711 23.6193 7.97813 23.4502C8.07728 23.2837 8.21811 23.1454 8.38697 23.0487C8.55907 22.949 8.75515 22.8972 8.95445 22.899C9.15257 22.8969 9.3475 22.9487 9.51808 23.0487C9.68525 23.1462 9.82459 23.2844 9.92295 23.4502C10.0239 23.6194 10.0761 23.8127 10.0739 24.0093C10.0758 24.207 10.0236 24.4015 9.92295 24.5722C9.82563 24.7399 9.68612 24.8796 9.51808 24.9777C9.34749 25.0779 9.15243 25.1297 8.95419 25.1274H8.95445ZM10.3597 28.5918V23.0014H12.2095V28.5918H10.3597ZM14.5512 26.0564C14.5564 26.0619 14.5961 26.1262 14.6703 26.2493C14.7444 26.3725 14.841 26.53 14.96 26.7218C15.0791 26.9135 15.2048 27.1169 15.337 27.332C15.4692 27.5471 15.5936 27.7505 15.7102 27.9422C15.8264 28.1339 15.9587 28.3504 16.1071 28.5918H14.0749C13.9478 28.3871 13.8326 28.2021 13.7294 28.0367C13.6262 27.8714 13.5165 27.6929 13.4003 27.5013C13.2837 27.3099 13.1685 27.1235 13.0547 26.9422C12.9408 26.761 12.8429 26.6022 12.7611 26.4659C12.6789 26.3295 12.6219 26.2376 12.5903 26.1903C12.5117 26.0728 12.4653 25.9372 12.4554 25.7966C12.4633 25.6617 12.5071 25.5312 12.5823 25.4186C12.6141 25.3661 12.6723 25.2729 12.757 25.139C12.8417 25.0052 12.9409 24.8464 13.0547 24.6627C13.1685 24.479 13.2837 24.2913 13.4003 24.0997C13.5169 23.9081 13.6266 23.7283 13.7294 23.5603C13.8328 23.3925 13.948 23.2062 14.0749 23.0013H16.1071L14.5352 25.5445C14.4865 25.62 14.4591 25.7071 14.4558 25.7966C14.461 25.8906 14.4941 25.981 14.5509 26.0564H14.5512Z" fill="#00B3C7"/>
<path fill-rule="evenodd" clip-rule="evenodd" d="M22.4288 0.253967C17.0429 0.253967 12.6476 4.63366 12.6476 10.0002C12.6476 15.3566 17.0427 19.7467 22.4289 19.7467C27.8043 19.7467 32.2102 15.3566 32.2102 10.0002C32.2101 4.63366 27.8042 0.253967 22.4288 0.253967ZM14.5658 10.0002C14.5658 14.3273 18.1178 17.9086 22.4288 17.9086C26.7817 17.9086 30.2919 14.3273 30.2918 10.0002C30.2918 5.62074 26.7817 2.09201 22.4288 2.09201C18.1178 2.09201 14.5658 5.62083 14.5658 10.0002ZM20.7003 10.0318C20.7022 10.2293 20.6644 10.4252 20.5893 10.608C20.5141 10.7908 20.4031 10.9567 20.2627 11.0962C20.1222 11.2356 19.9553 11.3456 19.7716 11.4198C19.5878 11.4941 19.3911 11.5309 19.1929 11.5283C18.7945 11.5283 18.4125 11.3707 18.1308 11.09C17.8492 10.8093 17.6909 10.4287 17.6909 10.0318C17.6909 9.63484 17.8492 9.25418 18.1308 8.97351C18.4125 8.69285 18.7945 8.53518 19.1929 8.53518C19.3911 8.53255 19.5879 8.56943 19.7716 8.64365C19.9553 8.71786 20.1223 8.82792 20.2628 8.96735C20.4032 9.10677 20.5142 9.27276 20.5894 9.45556C20.6645 9.63836 20.7022 9.83427 20.7003 10.0318ZM27.5404 9.33867L26.5501 10.1259C26.4762 10.1784 26.4762 10.2308 26.4974 10.315L26.824 11.5229C26.8453 11.5862 26.8136 11.5962 26.7713 11.5646L25.7064 10.8719C25.6792 10.8514 25.6459 10.8403 25.6117 10.8403C25.5776 10.8403 25.5443 10.8514 25.517 10.8719L24.4418 11.5758C24.3996 11.6071 24.3679 11.5862 24.3891 11.5233L24.7157 10.3154C24.7304 10.2836 24.7342 10.2479 24.7266 10.2137C24.719 10.1796 24.7003 10.1489 24.6735 10.1263L23.6724 9.31743C23.6406 9.28616 23.6406 9.24412 23.6933 9.24412L24.9478 9.19161C24.9766 9.19253 25.0048 9.18368 25.0279 9.1665C25.051 9.14932 25.0675 9.12483 25.0748 9.09705L25.5593 7.88914C25.591 7.81583 25.6332 7.82587 25.6542 7.88914L26.0759 9.0552C26.085 9.09733 26.1094 9.13462 26.1445 9.15985C26.1795 9.18508 26.2227 9.19646 26.2657 9.19179L27.5094 9.2443C27.583 9.24412 27.5934 9.29664 27.5408 9.33867H27.5404Z" fill="#00B3C7"/>
</g>
</g>
<defs>
<clipPath id="clip0_4164_1477">
<rect width="45" height="31" fill="white"/>
</clipPath>
<clipPath id="clip1_4164_1477">
<rect width="44.5714" height="30.5714" fill="white"/>
</clipPath>
</defs>
</svg>

<svg xmlns="http://www.w3.org/2000/svg" viewBox="0 0 45 31"><g clip-path="url(#a)"><g fill="#00B3C7" clip-path="url(#b)"><path d="M22.188 26.443c.07.183.103.378.098.574.008.264-.056.526-.185.757-.123.21-.297.386-.504.514-.233.14-.488.24-.755.292-.307.063-.62.094-.934.092a8.41 8.41 0 0 1-.429-.011 2.963 2.963 0 0 1-.429-.054 6.944 6.944 0 0 1-.456-.109 9.914 9.914 0 0 1-.531-.162l-.044-.985c.167.058.335.112.505.163a5.698 5.698 0 0 0 .956.2c.134.017.27.026.406.027a2.82 2.82 0 0 0 .592-.06c.164-.03.317-.1.445-.205a.51.51 0 0 0 .168-.405.468.468 0 0 0-.054-.222.608.608 0 0 0-.152-.184 1.167 1.167 0 0 0-.228-.146 3.08 3.08 0 0 0-.272-.12 8.291 8.291 0 0 1-.222-.07c-.076-.024-.156-.05-.24-.075a6.524 6.524 0 0 0-.249-.07 2.848 2.848 0 0 1-.494-.173 2.447 2.447 0 0 1-.412-.212 1.445 1.445 0 0 1-.337-.291 1.256 1.256 0 0 1-.222-.4 1.612 1.612 0 0 1-.082-.536c-.006-.255.05-.507.163-.736.11-.21.27-.388.467-.52.222-.144.469-.249.728-.307.302-.071.612-.106.922-.103.137 0 .277.005.418.016.14.01.28.029.418.054a3.261 3.261 0 0 1 .825.265l-.086.952a2.261 2.261 0 0 0-.32-.13 5.204 5.204 0 0 0-.685-.167 3.76 3.76 0 0 0-.58-.049 2.294 2.294 0 0 0-.468.043 1.276 1.276 0 0 0-.352.125.56.56 0 0 0-.217.2.518.518 0 0 0-.07.27.49.49 0 0 0 .07.265.703.703 0 0 0 .179.195c.077.057.161.106.25.146.091.045.185.085.282.119.1.036.208.069.32.097.112.03.225.063.337.103.112.04.222.078.33.114.163.056.321.124.473.205.146.078.277.178.39.298.114.121.205.262.267.416Zm4.703-3.353 1.238-.184-.011 5.657h-.966l-.173-.702-.082.075c-.17.154-.358.288-.56.4-.193.108-.399.191-.613.25a2.646 2.646 0 0 1-.689.086c-.36.01-.716-.07-1.037-.233a1.473 1.473 0 0 1-.646-.703c-.145-.314-.217-.716-.217-1.206v-3.44l1.237-.184v3.397c-.006.241.034.482.12.708.07.18.2.332.369.428.201.102.426.15.651.14a2.2 2.2 0 0 0 .407-.037 2.832 2.832 0 0 0 .771-.265c.066-.034.133-.07.201-.11V23.09Zm6.788.146a2.346 2.346 0 0 0-1.292-.34 3.207 3.207 0 0 0-.815.108 3.542 3.542 0 0 0-.814.33c-.047.026-.094.056-.141.085v-.512l-1.238.195v7.723h1.238v-2.43c.197.083.403.145.613.186.26.049.523.072.787.07.491.007.974-.116 1.401-.357.42-.246.76-.607.983-1.039.242-.454.363-1.006.363-1.655a3.392 3.392 0 0 0-.277-1.411 2.162 2.162 0 0 0-.808-.953Zm-.392 3.592c-.125.28-.339.51-.607.66a1.996 1.996 0 0 1-.977.221 2.828 2.828 0 0 1-.945-.146 6.533 6.533 0 0 1-.141-.047V24.16l.01-.005c.153-.068.296-.126.43-.173.125-.044.254-.079.385-.103.118-.021.238-.032.358-.032.326-.012.649.059.94.205.252.141.451.362.564.628.138.34.203.704.19 1.07.011.37-.06.737-.206 1.077Zm6.196-.8a1.79 1.79 0 0 0 .592-.303c.15-.12.271-.274.352-.449.08-.177.121-.369.12-.562a1.589 1.589 0 0 0-.147-.66 1.704 1.704 0 0 0-.434-.579 2.078 2.078 0 0 0-.722-.4 3.18 3.18 0 0 0-1.01-.146c-.593 0-1.096.124-1.509.373a2.354 2.354 0 0 0-.933 1.05 3.692 3.692 0 0 0-.315 1.573c0 .6.11 1.104.33 1.515.222.411.57.741.994.941.442.216.985.325 1.629.325.24.001.48-.015.717-.05.21-.03.417-.08.618-.15.196-.069.395-.15.597-.244l.076-.898c-.281.11-.57.202-.863.276-.329.08-.666.117-1.004.114a3 3 0 0 1-.803-.098 1.24 1.24 0 0 1-.918-.909 2.606 2.606 0 0 1-.09-.473l1.887-.1c.284-.015.564-.065.836-.146Zm-2.834-.558c.014-.264.067-.524.156-.773.09-.262.26-.49.489-.649.235-.146.51-.22.787-.21.225-.01.449.037.651.135a.92.92 0 0 1 .37.34.815.815 0 0 1 .119.412.608.608 0 0 1-.082.32.562.562 0 0 1-.271.215 1.594 1.594 0 0 1-.505.103l-1.714.107Zm7.922-2.537-.151 1.114a3.17 3.17 0 0 0-.419.005c-.126.01-.251.03-.374.06-.116.03-.23.065-.342.108a2.195 2.195 0 0 0-.33.163c-.08.047-.16.099-.24.15v4.025h-1.238v-5.474l1.238-.183v.869l.06-.069c.15-.168.32-.32.504-.449.18-.125.38-.219.592-.276.229-.058.466-.073.7-.043ZM0 28.592v-5.59h1.85v5.59H0Zm4.366-4.7 1.064 4.7H3.406l-1.27-5.59H3.27c.26-.004.513.087.71.255.198.162.334.385.385.634Zm1.342 4.7v-5.59h1.85v5.59h-1.85Zm3.246-3.465a1.11 1.11 0 0 1-.567-.15 1.114 1.114 0 0 1-.409-1.527 1.128 1.128 0 0 1 .976-.551c.199-.002.393.05.564.15.167.097.307.235.405.401.1.17.153.363.15.56a1.122 1.122 0 0 1-.556.968c-.17.1-.365.152-.563.15Zm1.406 3.465v-5.59h1.85v5.59h-1.85Zm4.191-2.536c.005.006.045.07.12.193.073.123.17.281.289.473a148.408 148.408 0 0 1 .75 1.22c.116.192.249.408.397.65h-2.032l-.346-.555a48.75 48.75 0 0 1-.329-.536 49.165 49.165 0 0 0-.345-.559c-.114-.181-.212-.34-.294-.476a8.426 8.426 0 0 0-.17-.276.81.81 0 0 1-.136-.393.76.76 0 0 1 .127-.378c.032-.053.09-.146.175-.28a59.018 59.018 0 0 0 .643-1.04 260.044 260.044 0 0 1 .675-1.098h2.032l-1.572 2.543a.5.5 0 0 0-.08.253.475.475 0 0 0 .096.26Z"/><path fill-rule="evenodd" d="M22.429.254c-5.386 0-9.781 4.38-9.781 9.746 0 5.357 4.395 9.747 9.78 9.747 5.376 0 9.782-4.39 9.782-9.747 0-5.366-4.406-9.746-9.781-9.746ZM14.566 10c0 4.327 3.552 7.909 7.863 7.909 4.353 0 7.863-3.582 7.863-7.909 0-4.38-3.51-7.908-7.863-7.908-4.311 0-7.863 3.529-7.863 7.908Zm6.134.032a1.479 1.479 0 0 1-.928 1.388c-.184.074-.38.11-.58.108-.398 0-.78-.157-1.061-.438a1.494 1.494 0 0 1 1.062-2.555 1.492 1.492 0 0 1 1.396.92c.076.183.113.38.111.577Zm6.84-.693-.99.787c-.074.052-.074.105-.053.189l.327 1.208c.021.063-.01.073-.053.042l-1.065-.693a.157.157 0 0 0-.189 0l-1.075.704c-.042.031-.074.01-.053-.053l.327-1.208a.16.16 0 0 0-.043-.189l-1-.809c-.032-.03-.032-.073.02-.073l1.255-.052a.127.127 0 0 0 .127-.095l.484-1.208c.032-.073.074-.063.095 0l.422 1.166a.174.174 0 0 0 .19.137l1.243.052c.074 0 .084.053.032.095Z" clip-rule="evenodd"/></g></g><defs><clipPath id="a"><path fill="#fff" d="M0 0h45v31H0z"/></clipPath><clipPath id="b"><path fill="#fff" d="M0 0h44.571v30.571H0z"/></clipPath></defs></svg>
